src/img/partner44.svg

<svg id="Слой_1" data-name="Слой 1" xmlns="http://www.w3.org/2000/svg" viewBox="0 0 62.11 27.28"><defs><style>.cls-1{fill:#58595b}</style></defs><path class="cls-1" d="M8.93.29v2.27H2.74V5.3h5.67v2.28H2.74v4.49H0V.29zm2.94 2.35a1.3 1.3 0 01-1.46-1.33A1.29 1.29 0 0111.87 0a1.3 1.3 0 011.47 1.31 1.3 1.3 0 01-1.47 1.33zm-1.24 9.43V4h2.5v8.08zm9.75-8.32a3.21 3.21 0 013.51 3.32v5h-2.51v-4.7a1.49 1.49 0 00-1.67-1.59 2.44 2.44 0 00-1.92 1v5.27h-2.5V4h2.21v1a3.82 3.82 0 012.88-1.25z"/><path d="M35.59.29v2.27h-3.87v9.51H29V2.56h-3.83V.29zm3.22 3.46c3.58 0 4.73 2.65 4.15 5h-6.08c.29 1.18 1.62 1.67 3 1.67a6.94 6.94 0 002.65-.42v1.8a8.71 8.71 0 01-3.17.51c-2.73 0-5-1.47-5-4.28a4.23 4.23 0 014.45-4.28zm.09 1.79a1.87 1.87 0 00-2 1.73h3.85a1.6 1.6 0 00-1.85-1.73zm10.18-1.8a5.94 5.94 0 012.66.59v2.05a4.63 4.63 0 00-2.3-.6c-1.37 0-2.68.62-2.68 2.25s1.3 2.26 2.65 2.26a5.15 5.15 0 002.42-.59v2.07a7.7 7.7 0 01-2.91.54c-2.36 0-4.71-1.28-4.71-4.16 0-3.1 2.48-4.41 4.87-4.41zM56 .29v4.44a3.91 3.91 0 012.59-1 3.21 3.21 0 013.51 3.32v5h-2.5V7.37a1.49 1.49 0 00-1.68-1.59A2.44 2.44 0 0056 6.8v5.27h-2.5V.29z" fill="#d81e40"/><path class="cls-1" d="M4.59 15.26c2.94 0 5.26.9 5.26 4s-2.32 4-5.26 4h-2V27H0V15.26zm.12 2.22h-2.1V21h2.1c1.34 0 2.47-.36 2.47-1.74s-1.13-1.78-2.47-1.78zm10.35 1.24c2.44 0 4.61 1.45 4.61 4.28s-2.17 4.28-4.61 4.28-4.61-1.45-4.61-4.28 2.2-4.28 4.61-4.28zm0 2.09A2 2 0 0012.92 23a2 2 0 002.14 2.19A2 2 0 0017.22 23a2 2 0 00-2.16-2.19zM34 19l-2.67 8h-2.56l-1.65-5.27L25.47 27h-2.58l-2.68-8h2.58l1.51 5.5L26 19h2.3l1.65 5.54 1.5-5.54zm4.84-.28c3.47 0 4.58 2.65 4 5H37c.28 1.18 1.57 1.67 2.94 1.67a6.46 6.46 0 002.52-.49v1.83a8.12 8.12 0 01-3.06.51c-2.64 0-4.83-1.47-4.83-4.28a4.14 4.14 0 014.27-4.24zm.09 1.79a1.82 1.82 0 00-2 1.73h3.73a1.59 1.59 0 00-1.73-1.73zm11.12-1.72v2.27A2.91 2.91 0 0047 22.29V27h-2.47v-8h2.14v1.21a3.55 3.55 0 013.38-1.42z"/></svg>

<svg id="Слой_1" data-name="Слой 1" xmlns="http://www.w3.org/2000/svg" viewBox="0 0 62.11 27.28"><defs><style>.cls-1{fill:#58595b;}.cls-2{fill:#d81e40;}</style></defs><title>Монтажная область 12</title><path class="cls-1" d="M8.93.29V2.56H2.74V5.3H8.41V7.58H2.74v4.49H0V.29Z"/><path class="cls-1" d="M11.87,2.64a1.3,1.3,0,0,1-1.46-1.33A1.29,1.29,0,0,1,11.87,0a1.3,1.3,0,0,1,1.47,1.31A1.3,1.3,0,0,1,11.87,2.64Zm-1.24,9.43V4h2.5v8.08Z"/><path class="cls-1" d="M20.38,3.75a3.21,3.21,0,0,1,3.51,3.32v5H21.38V7.37a1.49,1.49,0,0,0-1.67-1.59,2.44,2.44,0,0,0-1.92,1v5.27h-2.5V4H17.5V5A3.82,3.82,0,0,1,20.38,3.75Z"/><path class="cls-2" d="M35.59.29V2.56H31.72v9.51H29V2.56H25.17V.29Z"/><path class="cls-2" d="M38.81,3.75c3.58,0,4.73,2.65,4.15,5H36.88c.29,1.18,1.62,1.67,3,1.67A6.94,6.94,0,0,0,42.53,10V11.8a8.71,8.71,0,0,1-3.17.51c-2.73,0-5-1.47-5-4.28A4.23,4.23,0,0,1,38.81,3.75Zm.09,1.79a1.87,1.87,0,0,0-2,1.73h3.85A1.6,1.6,0,0,0,38.9,5.54Z"/><path class="cls-2" d="M49.08,3.74a5.94,5.94,0,0,1,2.66.59V6.38a4.63,4.63,0,0,0-2.3-.6c-1.37,0-2.68.62-2.68,2.25s1.3,2.26,2.65,2.26a5.15,5.15,0,0,0,2.42-.59v2.07a7.7,7.7,0,0,1-2.91.54c-2.36,0-4.71-1.28-4.71-4.16C44.21,5.05,46.69,3.74,49.08,3.74Z"/><path class="cls-2" d="M56,.29V4.73a3.91,3.91,0,0,1,2.59-1,3.21,3.21,0,0,1,3.51,3.32v5h-2.5V7.37a1.49,1.49,0,0,0-1.68-1.59A2.44,2.44,0,0,0,56,6.8v5.27h-2.5V.29Z"/><path class="cls-1" d="M4.59,15.26c2.94,0,5.26.9,5.26,4s-2.32,4-5.26,4h-2V27H0V15.26Zm.12,2.22H2.61V21h2.1c1.34,0,2.47-.36,2.47-1.74S6.05,17.48,4.71,17.48Z"/><path class="cls-1" d="M15.06,18.72c2.44,0,4.61,1.45,4.61,4.28s-2.17,4.28-4.61,4.28S10.45,25.83,10.45,23,12.65,18.72,15.06,18.72Zm0,2.09A2,2,0,0,0,12.92,23a2,2,0,0,0,2.14,2.19A2,2,0,0,0,17.22,23,2,2,0,0,0,15.06,20.81Z"/><path class="cls-1" d="M34,19,31.33,27H28.77l-1.65-5.27L25.47,27H22.89L20.21,19h2.58L24.3,24.5,26,19h2.3l1.65,5.54L31.45,19Z"/><path class="cls-1" d="M38.84,18.72c3.47,0,4.58,2.65,4,5H37c.28,1.18,1.57,1.67,2.94,1.67a6.46,6.46,0,0,0,2.52-.49v1.83a8.12,8.12,0,0,1-3.06.51c-2.64,0-4.83-1.47-4.83-4.28A4.14,4.14,0,0,1,38.84,18.72Zm.09,1.79a1.82,1.82,0,0,0-2,1.73h3.73A1.59,1.59,0,0,0,38.93,20.51Z"/><path class="cls-1" d="M50.05,18.79v2.27A2.91,2.91,0,0,0,47,22.29V27H44.53V19h2.14v1.21A3.55,3.55,0,0,1,50.05,18.79Z"/></svg>
